icons/lines/bookmark-two.svg

<svg xmlns="http://www.w3.org/2000/svg" width="24" height="24" viewBox="0 0 24 24" fill="none" stroke="currentColor" stroke-width="2" stroke-linecap="round" stroke-linejoin="round">
  <path d="M14 2q3 0 3 3.03v7.05c0 1.99-1.41 2.76-3.14 1.72l-1.32-.8c-.3-.18-.78-.18-1.08 0l-1.32.8C8.41 14.84 7 14.07 7 12.08V5.03Q7 2 10 2z" />
  <path d="M6.82 4.99C3.41 5.56 2 7.66 2 11.9v3.03C2 19.98 4 22 9 22h6c5 0 7-2.02 7-7.07V11.9c0-4.31-1.46-6.42-5-6.94" />
</svg>

<svg xmlns="http://www.w3.org/2000/svg" width="24" height="24" viewBox="0 0 24 24" fill="none" stroke="currentColor" stroke-width="2" stroke-linecap="round" stroke-linejoin="round" >
  <path d="M14 2C16 2 17 3.01 17 5.03V12.08C17 14.07 15.59 14.84 13.86 13.8L12.54 13C12.24 12.82 11.76 12.82 11.46 13L10.14 13.8C8.41 14.84 7 14.07 7 12.08V5.03C7 3.01 8 2 10 2H14Z"/>
  <path d="M6.82 4.99002C3.41 5.56002 2 7.66002 2 11.9V14.93C2 19.98 4 22 9 22H15C20 22 22 19.98 22 14.93V11.9C22 7.59002 20.54 5.48002 17 4.96002"/>
  </svg>
